X:7
T:Reel 7
M:4/4
K:Gmaj
L:1/8
Bc|d2Bd efge|dBGB AGEG|d2Bd efgb|afdf g2 (3gfe |d2Bd efge|dBGB AGEG|d2Bd efgb|afdf g2|ef|g2gd Bdgb|afaf edfd|g2gf edeg|dBAB G2z2|g2gf gdBd|gdgb agef|gfge dege|dBAB G2|
